X:268
T: Der Zimmergeselle (32), S. 117
N: T0157
O: Luxemburg
S: Singendes Volk, Esch-Alzette 1937 posth.]
N: Rodershausen, ? M. Dirkes
R: Liebeslieder]
M: 6/8
L: 1/8
K: G
D | G2Bd2G | FFAcc
A | BBddcB | A2z3
c | c2eedc | BBddc
B | A2dded | B2z3

